korla/status/symbolic/network-wireless-encrypted-symbolic.svg

<svg style="clip-rule:evenodd;fill-rule:evenodd;stroke-linejoin:round;stroke-miterlimit:2" version="1.1" viewBox="0 0 16 16" xmlns="http://www.w3.org/2000/svg">
 <g transform="matrix(1.46259 0 0 .896599 -3.70068 1.13716)">
  <path d="m11.648 7.69c0-0.188-0.094-0.34-0.209-0.34h-6.878c-0.115 0-0.209 0.152-0.209 0.34v6.615c0 0.188 0.094 0.34 0.209 0.34h6.878c0.115 0 0.209-0.152 0.209-0.34v-6.615z" style="fill-opacity:.5;fill:rgb(223,223,223)"/>
 </g>
 <path d="m8 1c-2.216 0-4 1.784-4 4v2h-1c-0.554 0-1 0.446-1 1v6c0 0.554 0.446 1 1 1h10c0.554 0 1-0.446 1-1v-6c0-0.554-0.446-1-1-1h-1v-2c0-2.216-1.784-4-4-4zm5.335 7.032c0-0.168-0.137-0.305-0.305-0.305h-10.06c-0.168 0-0.305 0.137-0.305 0.305v5.931c0 0.168 0.137 0.305 0.305 0.305h10.06c0.168 0 0.305-0.137 0.305-0.305v-5.931zm-5.335-5.032c1.108 0 2 0.892 2 2v2h-4v-2c0-1.108 0.892-2 2-2z" style="fill:rgb(223,223,223)"/>
</svg>

<svg xmlns="http://www.w3.org/2000/svg" width="16" height="16" version="1.1">
 <path style="fill:#dfdfdf" d="M 8,1 C 5.784,1 4,2.784 4,5 V 7 H 3 C 2.446,7 2,7.446 2,8 V 14 C 2,14.554 2.446,15 3,15 H 13 C 13.554,15 14,14.554 14,14 V 8 C 14,7.446 13.554,7 13,7 H 12 V 5 C 12,2.784 10.216,1 8,1 Z M 8,3 C 9.108,3 10,3.892 10,5 V 7 H 6 V 5 C 6,3.892 6.892,3 8,3 Z"/>
</svg>
